symbols/web/sell/materialsymbolssharp/sell_wght100fill1_20px.svg

<svg xmlns="http://www.w3.org/2000/svg" height="20" width="20"><path d="M10.708 17.521 2.75 9.583V2.75h6.812l7.98 7.938ZM5.479 6.229q.313 0 .531-.219.219-.218.219-.531 0-.312-.219-.531-.218-.219-.531-.219-.312 0-.531.219-.219.219-.219.531 0 .313.219.531.219.219.531.219Z"/></svg>

<svg xmlns="http://www.w3.org/2000/svg" height="20" width="20"><path d="M10.708 17.521 2.75 9.583V2.75H9.562L17.542 10.688ZM5.479 6.229Q5.792 6.229 6.01 6.01Q6.229 5.792 6.229 5.479Q6.229 5.167 6.01 4.948Q5.792 4.729 5.479 4.729Q5.167 4.729 4.948 4.948Q4.729 5.167 4.729 5.479Q4.729 5.792 4.948 6.01Q5.167 6.229 5.479 6.229Z"/></svg>
